build/assets/images/content/cardan.svg

<svg width="512" height="512" fill="none" xmlns="http://www.w3.org/2000/svg"><path d="M241.406 21l-15.22 34.75a182.242 182.242 0 00-23.467 2.97l-23.282-30.064-25.094 8.532-.125 38.25c-10.63 5.464-20.817 12.07-30.44 19.78L88.313 79.25 70.156 98.563 88.312 133a180.58 180.58 0 00-15.218 26.094l-38.938 1.062-7.906 25.28 31.438 23.158c-1.505 9.38-2.24 18.858-2.282 28.344L20.5 254.625l3.656 26.25 38.313 7.5a181.6 181.6 0 008.5 23.5L45.72 343.22l14.093 22.436 39.25-9.187a185.132 185.132 0 007.718 8.53 187.386 187.386 0 0017.72 16.125l-7.625 39.313 22.938 13.25 29.968-26.094a179.393 179.393 0 0026.407 8.312l9.782 38.406 26.405 2.157 15.875-36.22c10.97-.66 21.904-2.3 32.656-4.938l25.22 29.22 24.593-9.844-.72-14.813-57.406-43.53c-16.712 4.225-34.042 5.356-51.063 3.436-31.754-3.58-62.27-17.92-86.218-42.686-54.738-56.614-53.173-146.67 3.438-201.406 27.42-26.513 62.69-39.963 98-40.344 37.59-.406 75.214 13.996 103.438 43.187 45.935 47.512 52.196 118.985 19.562 173.095l31.97 24.25a181.443 181.443 0 0010.75-19.375l38.655-1.063 7.906-25.28-31.217-23a183.327 183.327 0 002.28-28.594l34.688-17.625-3.655-26.25-38.28-7.5a181.934 181.934 0 00-12.75-32.125l22.81-31.594-15.25-21.657-37.56 10.906c-.472-.5-.93-1.007-1.408-1.5a184.77 184.77 0 00-18.937-17.064l7.188-37.125L334 43.78l-28.5 24.814c-9.226-3.713-18.702-6.603-28.313-8.75l-9.343-36.688L241.406 21zM183.25 174.5c-10.344.118-20.597 2.658-30 7.28l45.22 34.314c13.676 10.376 17.555 30.095 7.06 43.937-10.498 13.85-30.656 15.932-44.53 5.408l-45.188-34.282c-4.627 24.793 4.135 51.063 25.594 67.344 19.245 14.597 43.944 17.33 65.22 9.688l4.78-1.72 4.03 3.063 135.19 102.564 4.03 3.062-.344 5.063c-1.637 22.55 7.59 45.61 26.844 60.217 21.46 16.28 49.145 17.63 71.78 6.5l-45.186-34.28c-13.874-10.526-17.282-30.506-6.78-44.344 10.5-13.84 30.537-15.405 44.217-5.032l45.188 34.283c4.616-24.784-4.11-51.067-25.563-67.344-19.313-14.658-43.817-17.562-64.968-10.033l-4.75 1.688-4.03-3.063-135.19-102.562-4.03-3.063.344-5.03c1.55-22.387-7.85-45.194-27.157-59.845-12.544-9.516-27.222-13.978-41.78-13.812l-.001-.001zm43.563 90.25l163.875 124.344L379.406 404 215.5 279.625l11.313-14.875z" fill="#333"/></svg>

<svg width="512" height="512" viewBox="0 0 512 512" fill="none" xmlns="http://www.w3.org/2000/svg">
<path d="M241.406 21L226.186 55.75C218.322 56.228 210.483 57.222 202.719 58.72L179.437 28.656L154.343 37.188L154.218 75.438C143.588 80.902 133.401 87.508 123.778 95.218L88.313 79.25L70.156 98.563L88.312 133C82.46 141.346 77.387 150.072 73.094 159.094L34.156 160.156L26.25 185.436L57.688 208.594C56.183 217.974 55.448 227.452 55.406 236.938L20.5 254.625L24.156 280.875L62.469 288.375C64.753 296.357 67.576 304.201 70.969 311.875L45.72 343.22L59.813 365.656L99.063 356.469C101.533 359.364 104.1 362.226 106.781 364.999C112.424 370.834 118.346 376.205 124.501 381.124L116.876 420.437L139.814 433.687L169.782 407.593C178.388 411.055 187.217 413.823 196.189 415.905L205.971 454.311L232.376 456.468L248.251 420.248C259.221 419.588 270.155 417.948 280.907 415.31L306.127 444.53L330.72 434.686L330 419.873L272.594 376.343C255.882 380.568 238.552 381.699 221.531 379.779C189.777 376.199 159.261 361.859 135.313 337.093C80.575 280.479 82.14 190.423 138.751 135.687C166.171 109.174 201.441 95.724 236.751 95.343C274.341 94.937 311.965 109.339 340.189 138.53C386.124 186.042 392.385 257.515 359.751 311.625L391.721 335.875C395.718 329.595 399.315 323.125 402.471 316.5L441.126 315.437L449.032 290.157L417.815 267.157C419.328 257.7 420.077 248.122 420.095 238.563L454.783 220.938L451.128 194.688L412.848 187.188C409.652 176.195 405.404 165.426 400.098 155.063L422.908 123.469L407.658 101.812L370.098 112.718C369.626 112.218 369.168 111.711 368.69 111.218C362.692 105.013 356.36 99.328 349.753 94.154L356.941 57.029L334 43.78L305.5 68.594C296.274 64.881 286.798 61.991 277.187 59.844L267.844 23.156L241.406 21ZM183.25 174.5C172.906 174.618 162.653 177.158 153.25 181.78L198.47 216.094C212.146 226.47 216.025 246.189 205.53 260.031C195.032 273.881 174.874 275.963 161 265.439L115.812 231.157C111.185 255.95 119.947 282.22 141.406 298.501C160.651 313.098 185.35 315.831 206.626 308.189L211.406 306.469L215.436 309.532L350.626 412.096L354.656 415.158L354.312 420.221C352.675 442.771 361.902 465.831 381.156 480.438C402.616 496.718 430.301 498.068 452.936 486.938L407.75 452.658C393.876 442.132 390.468 422.152 400.97 408.314C411.47 394.474 431.507 392.909 445.187 403.282L490.375 437.565C494.991 412.781 486.265 386.498 464.812 370.221C445.499 355.563 420.995 352.659 399.844 360.188L395.094 361.876L391.064 358.813L255.874 256.251L251.844 253.188L252.188 248.158C253.738 225.771 244.338 202.964 225.031 188.313C212.487 178.797 197.809 174.335 183.251 174.501L183.25 174.5ZM226.813 264.75L390.688 389.094L379.406 404L215.5 279.625L226.813 264.75Z" fill="#333333"/>
</svg>
